X:273
T:Paddy's Leather Breeches #1 
C:Joe Buchanan's Scottish Tome - Page 317.1
I:317 1
R:Jig
Z:Carl Allison
L:1/8
M:6/8
K:D
"Bm" B>BB (f2 e) | "Bm" f>BB (f2 e) | B>BB (f2  e)   | "A" c>AA {/f}(e2 c) |
"Bm" B>BB (f2 e) | "Bm" f>BB (f2 e) | "D" f>ga "A" e>fa | "A" c>AA {/f}(e2 c) :|
"F#m" a3 (f2 e) | "Bm" f>BB (f2 e) | "F#m" a3 (f2 e) | "A" c>AA {/f}(e2 c) |
"F#m" a3 (f2 e) | "Bm" f>BB (f2 e) | "D" f>ga e>fa  | "A" c>AA {/f}(e2 c) :|
"Bm" B>BB "A" c>cc | "Bm" B>BB (f2 e) | "A" c>cc "Bm" B>BB | "A" A>AA {/f}(e2 c) |
"Bm" B>BB cBc  | "Bm" Bce (f2 e) | "D" f>ga "A" e>fa | "A" c>AA {/f}e2 B :|
"F#m" a>aa (f2 e) | "Bm" f>BB (f2 e) | "F#m" a>ga (f2 e) | "A" c>AA {/f}(e2 c) |
"F#m" a>ga (f2 e) | "Bm" f>BB (f2 e) | "D" f/>ga "A" e>fa | "A" c>AA {/f}(e2 c) :|

